tools/download-figma-icons/icons/solid/connector-ccs.svg

<svg width="24" height="24" viewBox="0 0 24 24" fill="none" xmlns="http://www.w3.org/2000/svg">
<path fill-rule="evenodd" clip-rule="evenodd" d="M15.75 21.75C14.5125 21.75 13.5 20.7375 13.5 19.5C13.5 18.2625 14.5125 17.25 15.75 17.25C16.9875 17.25 18 18.2625 18 19.5C18 20.7375 16.9875 21.75 15.75 21.75ZM12.75 11.25C12.75 10.425 13.425 9.75 14.25 9.75C15.075 9.75 15.75 10.425 15.75 11.25C15.75 12.075 15.075 12.75 14.25 12.75C13.425 12.75 12.75 12.075 12.75 11.25ZM10.5375 7.5C10.5375 6.675 11.205 6 12.0375 6C12.8625 6 13.5375 6.675 13.5375 7.5C13.5375 8.325 12.8625 9 12.0375 9C11.205 9 10.5375 8.325 10.5375 7.5ZM9.75 12.75C8.925 12.75 8.25 12.075 8.25 11.25C8.25 10.425 8.925 9.75 9.75 9.75C10.575 9.75 11.25 10.425 11.25 11.25C11.25 12.075 10.575 12.75 9.75 12.75ZM8.25 21.75C7.0125 21.75 6 20.7375 6 19.5C6 18.2625 7.0125 17.25 8.25 17.25C9.4875 17.25 10.5 18.2625 10.5 19.5C10.5 20.7375 9.4875 21.75 8.25 21.75ZM6 7.5C6 6.675 6.675 6 7.5 6C8.325 6 9 6.675 9 7.5C9 8.325 8.325 9 7.5 9C6.675 9 6 8.325 6 7.5ZM10.125 3C10.7475 3 11.25 3.5025 11.25 4.125C11.25 4.7475 10.7475 5.25 10.125 5.25C9.5025 5.25 9 4.7475 9 4.125C9 3.5025 9.5025 3 10.125 3ZM13.875 3C14.4975 3 15 3.5025 15 4.125C15 4.7475 14.4975 5.25 13.875 5.25C13.2525 5.25 12.75 4.7475 12.75 4.125C12.75 3.5025 13.2525 3 13.875 3ZM16.5 6C17.325 6 18 6.675 18 7.5C18 8.325 17.325 9 16.5 9C15.675 9 15 8.325 15 7.5C15 6.675 15.675 6 16.5 6ZM17.16 15.0525C18.615 14.1675 19.8375 12.9 20.6625 11.34C21.375 9.9975 21.75 8.475 21.75 6.9525C21.75 5.94 21.585 4.9425 21.27 3.9825C20.985 3.1275 20.5725 2.3175 20.055 1.5675C19.7925 1.2 18.8475 0 17.52 0H6.4875C5.565 0 4.59 0.6225 3.885 1.665C3.39 2.385 3.0075 3.165 2.73 3.9825C2.415 4.9425 2.25 5.94 2.25 6.9525C2.25 8.475 2.625 9.9975 3.3375 11.34C4.1625 12.9 5.385 14.1675 6.84 15.0525C4.6725 15.375 3 17.2425 3 19.5C3 21.9825 5.0175 24 7.5 24H16.5C18.9825 24 21 21.9825 21 19.5C21 17.2425 19.3275 15.375 17.16 15.0525ZM9.75 19.5C9.75 20.328 9.078 21 8.25 21C7.422 21 6.75 20.328 6.75 19.5C6.75 18.672 7.422 18 8.25 18C9.078 18 9.75 18.672 9.75 19.5ZM15.75 21C16.578 21 17.25 20.328 17.25 19.5C17.25 18.672 16.578 18 15.75 18C14.922 18 14.25 18.672 14.25 19.5C14.25 20.328 14.922 21 15.75 21Z" fill="black"/>
</svg>

<svg width="24" height="24" viewBox="0 0 24 24" fill="none" xmlns="http://www.w3.org/2000/svg"><path fill-rule="evenodd" clip-rule="evenodd" d="M15.75 21.75a2.257 2.257 0 0 1-2.25-2.25 2.257 2.257 0 0 1 2.25-2.25A2.257 2.257 0 0 1 18 19.5a2.257 2.257 0 0 1-2.25 2.25Zm-3-10.5c0-.825.675-1.5 1.5-1.5s1.5.675 1.5 1.5-.675 1.5-1.5 1.5-1.5-.675-1.5-1.5ZM10.537 7.5a1.5 1.5 0 1 1 3 0 1.5 1.5 0 0 1-3 0Zm-.787 5.25c-.825 0-1.5-.675-1.5-1.5s.675-1.5 1.5-1.5 1.5.675 1.5 1.5-.675 1.5-1.5 1.5Zm-1.5 9A2.257 2.257 0 0 1 6 19.5a2.257 2.257 0 0 1 2.25-2.25 2.257 2.257 0 0 1 2.25 2.25 2.257 2.257 0 0 1-2.25 2.25ZM6 7.5C6 6.675 6.675 6 7.5 6S9 6.675 9 7.5 8.325 9 7.5 9 6 8.325 6 7.5ZM10.125 3c.623 0 1.125.502 1.125 1.125 0 .622-.502 1.125-1.125 1.125A1.123 1.123 0 0 1 9 4.125C9 3.502 9.502 3 10.125 3Zm3.75 0C14.498 3 15 3.502 15 4.125c0 .622-.502 1.125-1.125 1.125a1.123 1.123 0 0 1-1.125-1.125c0-.623.502-1.125 1.125-1.125ZM16.5 6c.825 0 1.5.675 1.5 1.5S17.325 9 16.5 9 15 8.325 15 7.5 15.675 6 16.5 6Zm.66 9.053a9.596 9.596 0 0 0 3.503-3.713 9.406 9.406 0 0 0 .607-7.357 9.606 9.606 0 0 0-1.215-2.416C19.793 1.2 18.848 0 17.52 0H6.488C5.565 0 4.59.623 3.885 1.665c-.495.72-.877 1.5-1.155 2.317a9.406 9.406 0 0 0 .607 7.357 9.596 9.596 0 0 0 3.503 3.713A4.506 4.506 0 0 0 3 19.5C3 21.983 5.018 24 7.5 24h9c2.483 0 4.5-2.017 4.5-4.5a4.506 4.506 0 0 0-3.84-4.447ZM9.75 19.5a1.5 1.5 0 1 1-3.001-.001 1.5 1.5 0 0 1 3.001.001Zm6 1.5a1.5 1.5 0 1 0-.001-3.001A1.5 1.5 0 0 0 15.75 21Z" fill="currentColor"/></svg>
